!!!!SEGMENT: pl-gd--ee-1638--002-032_marenzio-luca--motettorum-pro-festis-totius-anni-in-festo-concept-b-mariae-conceptio-tua-dei-genitrix-virgo.krn
!!!cenid: 15xx:1035
!!!COM: Marenzio, Luca
!!!COM-rismID: pe30003955
!!!CDT: ~1553-1599/08/22
!!!CNT: Italian
!!!GTL: Motettorum pro festis totius anni
!!!OTL: In festo Concept. B. Mariae/Conceptio tua Dei genitrix virgo
!!!OMV: 032
!!!PDT: 1588
!!!AGN:
!!!SMS-siglum: PL-GD
!!!SMS-shelfmark: Ee 1638
!!!SMS-variant:
!!!SMS-altvar:
!!!SMS-shelfwork: 002-032 G
!!!NIFC-rismSourceID: 1001202747
!!!NIFC-rismChildID: 990039238
!!!NIFC-islandoraID: pl-gd:57883
!!!URL-pdf-islandora: https://repozytorium.nifc.pl/islandora/object/pl-gd%3A57883/datastream/PDF/view
!!!URL-scan: https://polish.musicsources.pl/pl/lokalizacje/galeria/klocki-introligatorskie/655 @EN{Scan on Polish Music Sources Website} @PL{Skany w portalu Dziedzictwo Muzyki Polskiej w otwartym dostępie}
!!!ONB-nifc: UWAGA: Cantus: s. 632 (lewa), Altus: s. 480 (lewa), Tenor: s. 328 (lewa), Bassus: s. 176 (lewa)
!!!AIN: 1 alto 1 bass 1 soprn 1 tenor
!!!key: G:mix
!!!finalis: g
**kern	**text	**kern	**text	**kern	**text	**kern	**text
*part4	*part4	*part3	*part3	*part2	*part2	*part1	*part1
*staff4	*staff4	*staff3	*staff3	*staff2	*staff2	*staff1	*staff1
*I"Basso	*	*I"Tenor	*	*I"Altus	*	*I"Cantus	*
*I'B	*	*I'T	*	*I'A	*	*I'C	*
*Ibass	*	*Itenor	*	*Ialto	*	*Isoprn	*
*ICvox	*	*ICvox	*	*ICvox	*	*ICvox	*
*clefC4	*	*clefC3	*	*clefC2	*	*clefG2	*
*k[]	*	*k[]	*	*k[]	*	*k[]	*
*G:mix	*	*G:mix	*	*G:mix	*	*G:mix	*
*M2/1	*	*M2/1	*	*M2/1	*	*M2/1	*
*met(C|)	*	*met(C|)	*	*met(C|)	*	*met(C|)	*
=1-	=1-	=1-	=1-	=1-	=1-	=1-	=1-
*xywh-#176:1099,550,3465,888	*	*	*	*	*	*	*
*	*	*xywh-#328:1169,461,3404,899	*	*	*	*	*
*	*	*	*	*xywh-#480:990,478,3519,893	*	*	*
*	*	*	*	*	*	*xywh-#632:1064,465,3462,869	*
!LO:TX:a:i:t=In feſto Concept. B. Marię	!	!LO:TX:a:i:t=In feſto Concept. B. Marię	!	!LO:TX:a:i:t=In feſto Concept. B. Marię	!	!LO:TX:a:i:t=In feſto Concept. B. Marię	!
00r	.	0r	.	0d	COn-	00r	.
=2-	=2-	=2-	=2-	=2-	=2-	=2-	=2-
.	.	0G	COn-	1.g	-cep-	.	.
.	.	.	.	2f\	-ti-	.	.
=3-	=3-	=3-	=3-	=3-	=3-	=3-	=3-
00r	.	1.c	-cep-	1e	-o	0g	COn-
.	.	.	.	1d	tu-	.	.
.	.	2B/	-ti-	.	.	.	.
=4-	=4-	=4-	=4-	=4-	=4-	=4-	=4-
.	.	1A	-o	1e	-a	1.cc	-cep-
.	.	1G	tu-	2r	.	.	.
.	.	.	.	2g\	De-	2b/	-ti-
=5-	=5-	=5-	=5-	=5-	=5-	=5-	=5-
0r	.	2A/	-a	2e/	-i	1a	-o
.	.	2d\	De-	2.f\	ge-	.	.
.	.	2B/	-i	.	.	1g	tu-
.	.	.	.	4f\	-ni-	.	.
.	.	2.c/	ge-	2e/	-trix	.	.
=6-	=6-	=6-	=6-	=6-	=6-	=6-	=6-
1r	.	.	.	1d	vir-	2a/	-a
.	.	4c/	-ni-	.	.	.	.
.	.	2B/	-trix	.	.	2dd\	De-
0G	COn-	1e	vir-	1g	-go	2b/	-i
.	.	.	.	.	.	2.cc\	ge-
=7-	=7-	=7-	=7-	=7-	=7-	=7-	=7-
.	.	1d	-go	1r	.	.	.
.	.	.	.	.	.	4cc\	-ni-
.	.	.	.	.	.	2b/	-trix
1.c	-cep-	1r	.	0g	Con-	1ee	vir-
=8-	=8-	=8-	=8-	=8-	=8-	=8-	=8-
.	.	2r	.	.	.	1dd	-go
2B\	-ti-	2d\	De-	.	.	.	.
1A	-o	2f\	-i	1.cc	-cep-	1r	.
.	.	2.e\	ge-	.	.	.	.
=9-	=9-	=9-	=9-	=9-	=9-	=9-	=9-
1G	tu-	.	.	.	.	2r	.
.	.	4e\	-ni-	.	.	.	.
.	.	2d\	-trix	2b\	-ti-	2gg\	De-
2A/	-a	2c#X/	vir-	1a	-o	2ee\	-i
2d\	De-	2d\	-go	.	.	2.ff\	ge-
=10-	=10-	=10-	=10-	=10-	=10-	=10-	=10-
2B\	-i	1r	.	0g	tu-	.	.
.	.	.	.	.	.	4ff\	-ni-
2.c\	ge-	.	.	.	.	1ee	-trix
*	*	*xywh-#328:1139,1153,3465,745	*	*	*	*	*
!	!	!LO:SIC:v:t=custos g	!	!	!	!	!
!	!	!LO:LB:g=original	!	!	!	!	!
.	.	2r	.	.	.	.	.
4c\	-ni-	.	.	.	.	.	.
*	*	*	*ij	*	*	*	*
2B\	-trix	2g\	De-	.	.	2.dd\	vir-
=11-	=11-	=11-	=11-	=11-	=11-	=11-	=11-
1A	vir-	2e\	-i	1a	-a	.	.
.	.	.	.	.	.	4cc\	.
.	.	2.f\	ge-	.	.	4cc\	.
*	*	*	*	*	*	*xywh-#632:1080,1110,3408,753	*
!	!	!	!	!	!	!LO:SIC:v:t=custos b	!
!	!	!	!	!	!	!LO:LB:g=original	!
.	.	.	.	.	.	8b/	.
.	.	.	.	.	.	8a/	.
0G	-go	.	.	1r	.	2b/	.
.	.	4f\	-ni-	.	.	.	.
.	.	2e\	-trix	.	.	2.cc\	.
*	*	*	*	*xywh-#480:1037,1128,3472,783	*	*	*
!	!	!	!	!LO:SIC:v:t=custos g	!	!	!
!	!	!	!	!LO:LB:g=original	!	!	!
=12-	=12-	=12-	=12-	=12-	=12-	=12-	=12-
.	.	1d	vir-	2r	.	.	.
.	.	.	.	.	.	4b/	.
.	.	.	.	2g\	De-	4b/	.
.	.	.	.	.	.	8a/	.
.	.	.	.	.	.	8g/	.
*	*	*	*	*	*	*lig	*
*xywh-#176:1051,1226,3497,723	*	*	*	*	*	*	*
!LO:SIC:v:t=custos F	!	!	!	!	!	!	!
!LO:LB:g=original	!	!	!	!	!	!	!
1r	.	0cny	-go	2e/	-i	1a	.
*	*	*	*Xij	*	*	*	*
.	.	.	.	2.f\	ge-	.	.
=13-	=13-	=13-	=13-	=13-	=13-	=13-	=13-
1r	.	.	.	.	.	1g	.
*	*	*	*	*	*	*Xlig	*
.	.	.	.	4f\	-ni-	.	.
.	.	.	.	2e/	-trix	.	.
2r	.	2r	.	0a	vir-	4f/	-go
.	.	.	.	.	.	4g/	.
4F/	gau-	1f\	gau-	.	.	4a/	.
4G/	.	.	.	.	.	4b/	.
=14-	=14-	=14-	=14-	=14-	=14-	=14-	=14-
4A/	.	.	.	.	.	1cc	.
4B\	.	.	.	.	.	.	.
1c	.	2e\	-di-	.	.	.	.
.	.	1d	-um	1g	-go	2r	.
2B\	-di-	.	.	.	.	2dd\	an-
=15-	=15-	=15-	=15-	=15-	=15-	=15-	=15-
1c	-um	0r	.	2r	.	2.ee\	-nun-
.	.	.	.	4c/	gau-	.	.
.	.	.	.	4d/	.	4dd\	.
1r	.	.	.	4e/	.	2cc\	.
.	.	.	.	4f\	.	.	.
.	.	.	.	1g\	.	2b/	-ci-
=16-	=16-	=16-	=16-	=16-	=16-	=16-	=16-
2r	.	1r	.	.	.	1a	-a-
2d\	an-	.	.	2f#X\	-di-	.	.
2.e\	-nun-	2r	.	0g	-um	1g	-uit
*	*	*	*ij	*	*	*	*
.	.	4c/	gau-	.	.	.	.
4d\	.	4d\	.	.	.	.	.
=17-	=17-	=17-	=17-	=17-	=17-	=17-	=17-
2c\	.	4e\	.	.	.	1r	.
.	.	4f\	.	.	.	.	.
2B\	-ci-	1g	.	.	.	.	.
1A	-a-	.	.	2r	.	2r	.
*	*	*	*	*	*ij	*	*
.	.	2f#X\	-di-	1cc\	gau-	4cc\	gau-
.	.	.	.	.	.	4dd\	.
=18-	=18-	=18-	=18-	=18-	=18-	=18-	=18-
1G	-uit	1g	-um	.	.	4ee\	.
*	*	*	*Xij	*	*	*	*
.	.	.	.	.	.	4ff\	.
.	.	.	.	2b\	-di-	1gg	.
1r	.	2r	.	1a	-um	.	.
*	*	*	*	*	*Xij	*	*
.	.	2d\	an-	.	.	2ff#X\	-di-
=19-	=19-	=19-	=19-	=19-	=19-	=19-	=19-
0r	.	2.e\	-nun-	2r	.	0gg	-um
.	.	.	.	4c/	gau-	.	.
.	.	4d\	.	4d/	.	.	.
.	.	2c/	.	4e/	.	.	.
.	.	.	.	4fny\	.	.	.
.	.	2B/	-ci-	1g\	.	.	.
=20-	=20-	=20-	=20-	=20-	=20-	=20-	=20-
1r	.	1A	-a-	.	.	1r	.
.	.	.	.	2f#X\	-di-	.	.
*	*	*	*	*	*	*xywh-#632:1103,1684,3408,729	*
!	!	!	!	!	!	!LO:SIC:v:t=custos dd	!
!	!	!	!	!	!	!LO:LB:g=original	!
2r	.	1G	-uit	0g	-um	2r	.
*	*ij	*	*	*	*	*	*
2G/	an-	.	.	.	.	2dd\	an-
*	*	*xywh-#328:1093,1683,3473,783	*	*	*	*	*
*xywh-#176:1099,1760,3450,746	*	*	*	*	*	*	*
!LO:SIC:v:t=custos c	!	!LO:SIC:v:t=custos c	!	!	!	!	!
!LO:LB:g=original	!	!LO:LB:g=original	!	!	!	!	!
=21-	=21-	=21-	=21-	=21-	=21-	=21-	=21-
2.c\	-nun-	2r	.	.	.	2.ee\	-nun-
.	.	4c/	gau-	.	.	.	.
4B\	-ci-	4d\	.	.	.	4dd\	.
2A/	-a-	4e\	.	1r	.	2cc\	.
.	.	4fny\	.	.	.	.	.
2G/	.	1g\	.	.	.	2b/	-ci-
=22-	=22-	=22-	=22-	=22-	=22-	=22-	=22-
1d	.	.	.	2r	.	1a	-a-
.	.	2f#X\	-di-	2a\	an-	.	.
*	*	*	*	*xywh-#480:1053,1677,3440,744	*	*	*
!	!	!	!	!LO:SIC:v:t=custos b	!	!	!
!	!	!	!	!LO:LB:g=original	!	!	!
1G	-vit	2g\	-um	2b\	-nun-	0g	-uit
*	*Xij	*	*	*	*	*	*
.	.	2d\	an-	2b\	-ci-	.	.
=23-	=23-	=23-	=23-	=23-	=23-	=23-	=23-
0C	in	2.e\	-nun-	2.cc\	-a-	.	.
.	.	4d\	.	4b\	.	.	.
.	.	2c/	.	4a\	.	1r	.
.	.	.	.	4g\	.	.	.
.	.	2B/	-ci-	2.g\	.	.	.
=24-	=24-	=24-	=24-	=24-	=24-	=24-	=24-
1D	v-	1A	-a-	.	.	2r	.
.	.	.	.	8f#X\	.	.	.
.	.	.	.	8e\	.	.	.
.	.	.	.	2f#X\	.	2dd\	in
1E	-ni-	2G/	-uit	1g	-uit	2cc\	v-
.	.	2G/	in	.	.	2b/	-ni-
=25-	=25-	=25-	=25-	=25-	=25-	=25-	=25-
1F	-uer-	1A	v-	2r	.	4a/	-uer-
.	.	.	.	.	.	4b/	.
.	.	.	.	2a\	in	4cc\	.
.	.	.	.	.	.	4dd\	.
1G	-ſo	1B	-ni-	2g\	v-	2ee\	.
.	.	.	.	2fny\	-ni-	2dd\	-ſo
=26-	=26-	=26-	=26-	=26-	=26-	=26-	=26-
0A	mun-	2c/	-uer-	2e/	-uer-	0a	mun-
.	.	2d\	-ſo	1d	-ſo	.	.
.	.	1e	mun-	.	.	.	.
.	.	.	.	2c#X/	mun-	.	.
=27-	=27-	=27-	=27-	=27-	=27-	=27-	=27-
2D/	-do	1.fny	-do	1d	-do	0a	-do
2d\	ex	.	.	.	.	.	.
2d\	te	.	.	1r	.	.	.
1c\	e-	4e\	.	.	.	.	.
.	.	4d\	.	.	.	.	.
=28-	=28-	=28-	=28-	=28-	=28-	=28-	=28-
.	.	0e	.	2r	.	0r	.
2A/	-nim	.	.	2a\	ex	.	.
1c	or-	.	.	2a\	te	.	.
.	.	.	.	1g\	e-	.	.
=29-	=29-	=29-	=29-	=29-	=29-	=29-	=29-
2G/	-tus	0r	.	.	.	1r	.
2A/	eſt	.	.	2e/	-nim	.	.
1.G	ſol	.	.	1g	or-	2r	.
.	.	.	.	.	.	2dd\	ex
=30-	=30-	=30-	=30-	=30-	=30-	=30-	=30-
.	.	1r	.	2d/	-tus	2dd\	te
2C/	iuſ-	.	.	2e/	eſt	1cc	e-
*	*	*	*	*xywh-#480:1029,2241,3456,728	*	*	*
*xywh-#176:1106,2326,3395,707	*	*	*	*	*	*	*
!LO:SIC:v:t=custos G	!	!	!	!LO:SIC:v:t=custos d	!	!	!
!LO:LB:g=original	!	!	!	!LO:LB:g=original	!	!	!
2.G/	-ti-	2r	.	1d	ſol	.	.
.	.	2g\	ex	.	.	2b/	-nim
4G/	-ti-	.	.	.	.	.	.
=31-	=31-	=31-	=31-	=31-	=31-	=31-	=31-
0.D	-ae	2g\	te	2r	.	1dd	or-
.	.	1f	e-	1d	iuſ-	.	.
.	.	.	.	.	.	2a/	-tus
*	*	*xywh-#328:1069,2213,3496,760	*	*	*	*	*
!	!	!LO:SIC:v:t=custos d	!	!	!	!	!
!	!	!LO:LB:g=original	!	!	!	!	!
.	.	2d\	-nim	1f\	-ti-	2b-X/	eſt
=32-	=32-	=32-	=32-	=32-	=32-	=32-	=32-
.	.	1f	or-	.	.	2.a/	ſol
.	.	.	.	4e/	.	.	.
.	.	.	.	4d/	.	4a/	iu-
*	*	*	*	*	*	*xywh-#632:1056,2212,3447,768	*
!	!	!	!	!	!	!LO:SIC:v:t=custos g	!
!	!	!	!	!	!	!LO:LB:g=original	!
1r	.	2c/	-tus	4e/	.	2g/	-ſti-
.	.	.	.	4cny/	.	.	.
.	.	2d\	eſt	2.f\	.	2f/	-ti-
=33-	=33-	=33-	=33-	=33-	=33-	=33-	=33-
0r	.	1.c	ſol	.	.	2g/	-ae
.	.	.	.	8e/	.	.	.
.	.	.	.	8d/	.	.	.
*	*	*	*	*	*	*	*ij
.	.	.	.	4e/	.	2gg\	et
.	.	.	.	4f\	.	.	.
.	.	.	.	4g\	.	2gg\	te
.	.	.	.	4e/	.	.	.
.	.	2F/	iuſ-	2.a\	.	1ffny\	e-
=34-	=34-	=34-	=34-	=34-	=34-	=34-	=34-
1r	.	2.c/	-ti-	.	.	.	.
.	.	.	.	8g\	.	.	.
.	.	.	.	8f\	.	.	.
.	.	.	.	4g\	.	2ee\	-nim
.	.	4c/	-ti-	4a\	.	.	.
2r	.	1G	-ae	2.b-X\	.	1gg	or-
2d\	ex	.	.	.	.	.	.
.	.	.	.	4b-\	-ti-	.	.
=35-	=35-	=35-	=35-	=35-	=35-	=35-	=35-
2d\	te	2r	.	1a	-ae	2dd\	-tus
1c	e-	2e\	eſt	.	.	2ee\	est
.	.	1g	ſol	2r	.	1dd	sol
2B\	-nim	.	.	1d/	iuſ-	.	.
=36-	=36-	=36-	=36-	=36-	=36-	=36-	=36-
1d	or-	2.f\	iu-	.	.	1a	iu-
.	.	.	.	1f	-ti-	.	.
.	.	8e\	.	.	.	.	.
.	.	8d\	.	.	.	.	.
2A/	-tus	2c/	.	.	.	2a/	-sti-
2B-X\	eſt	1d\	-ſti-	4e/	.	2g/	-ti-
.	.	.	.	4d/	.	.	.
=37-	=37-	=37-	=37-	=37-	=37-	=37-	=37-
1.A	ſol	.	.	2.e/	.	0a	-ae
*	*	*	*	*	*	*	*Xij
.	.	4c/	.	.	.	.	.
.	.	4B/	.	4d/	.	.	.
.	.	2c/	.	2e/	.	.	.
*	*	*	*	*xywh-#480:998,2758,3448,744	*	*	*
!	!	!	!	!LO:SIC:v:t=custos f	!	!	!
!	!	!	!	!LO:LB:g=original	!	!	!
2D/	iuſ-	2A/	-ti-	2f\	-ti-	.	.
=38-	=38-	=38-	=38-	=38-	=38-	=38-	=38-
2.A/	-ti-	1c	-ę	2e/	-ae	2r	.
.	.	.	.	1a	Chriſ-	1cc	Chriſ-
4A/	-ti-	.	.	.	.	.	.
1E	-ae	2r	.	.	.	.	.
.	.	1e\	Chriſ-	2g\	-tus	2bny/	-tus
=39-	=39-	=39-	=39-	=39-	=39-	=39-	=39-
*	*	*	*	*lig	*	*	*
0A	CHriſ-	.	.	1f	De-	0.a	De-
.	.	2d\	-tus	.	.	.	.
.	.	1c#X	De-	1e	.	.	.
*	*	*	*	*Xlig	*	*	*
=40-	=40-	=40-	=40-	=40-	=40-	=40-	=40-
*	*	*	*	*lig	*	*	*
1D	-tis	0d	-us	1f#X	-us	.	.
1G	De-	.	.	1g	.	1b	-us
*	*	*	*	*Xlig	*	*	*
=41-	=41-	=41-	=41-	=41-	=41-	=41-	=41-
1F	-us	2r	.	0a	noſ-	00cc	noſ-
.	.	2.f\	no-	.	.	.	.
*xywh-#176:1122,2869,3426,707	*	*	*	*	*	*	*
!LO:SIC:v:t=custos A	!	!	!	!	!	!	!
!LO:LB:g=original	!	!	!	!	!	!	!
2.A/	no-	.	.	.	.	.	.
.	.	4cny/	.	.	.	.	.
*	*	*xywh-#328:1077,2805,3450,714	*	*	*	*	*
!	!	!LO:SIC:v:t=custos f	!	!	!	!	!
!	!	!LO:LB:g=original	!	!	!	!	!
.	.	1f\	.	.	.	.	.
4Bny\	.	.	.	.	.	.	.
=42-	=42-	=42-	=42-	=42-	=42-	=42-	=42-
0c	.	.	.	0g	.	.	.
.	.	4e\	.	.	.	.	.
.	.	4d\	.	.	.	.	.
.	.	1e	.	.	.	.	.
=43-	=43-	=43-	=43-	=43-	=43-	=43-	=43-
1F	-ſter	2f\	-ſter	0a	-ter	1cc	-ter
.	.	1c	qui	.	.	.	.
1F	qui	.	.	.	.	2r	.
.	.	2.d\	ſol-	.	.	2a/	qui
=44-	=44-	=44-	=44-	=44-	=44-	=44-	=44-
2.G/	ſol-	.	.	1r	.	2.b/	ſol-
.	.	4B/	.	.	.	.	.
.	.	2.e\	.	.	.	.	.
4E/	.	.	.	.	.	4g/	.
2.F/	.	.	.	2r	.	1a	.
.	.	4d\	.	.	.	.	.
.	.	2.d\	.	2fny\	qui	.	.
4D/	.	.	.	.	.	.	.
*	*	*	*	*	*	*xywh-#632:994,2787,3517,722	*
!	!	!	!	!	!	!LO:SIC:v:t=custos ee	!
!	!	!	!	!	!	!LO:LB:g=original	!
=45-	=45-	=45-	=45-	=45-	=45-	=45-	=45-
1E	.	.	.	2.g\	ſol-	1ee	-uens
.	.	8c/	.	.	.	.	.
!	!	!LO:N:acc=#	!	!	!	!	!
.	.	8Bn/	.	.	.	.	.
.	.	2c#X\	.	.	.	.	.
.	.	.	.	4e/	.	.	.
2D/	-uens	1d	-uens	2.f\	.	2r	.
*	*	*	*	*	*	*	*ij
2.d\	ma-	.	.	.	.	2ff\	qui
.	.	.	.	4d/	.	.	.
=46-	=46-	=46-	=46-	=46-	=46-	=46-	=46-
.	.	1r	.	1e	.	2.gg\	sol-
4c\	-le-	.	.	.	.	.	.
1c	-di-	.	.	.	.	.	.
.	.	.	.	.	.	4ee\	-vens
*	*	*	*	*	*	*	*Xij
.	.	2r	.	2A/	-uens	2.ff\	ma-
2B\	-cti-	2d\	qui	2.d/	ma-	.	.
.	.	.	.	.	.	4dd\	-le-
=47-	=47-	=47-	=47-	=47-	=47-	=47-	=47-
1c	-o-	2.g\	ſol-	.	.	1ee	-dic-
.	.	.	.	4c/	-le-	.	.
.	.	.	.	1c	-dic-	.	.
.	.	4e\	.	.	.	.	.
1d	-nem	2.f\	.	.	.	2a/	-ti-
.	.	.	.	2B/	-ti-	2.dd\	-o-
.	.	4d\	.	.	.	.	.
=48-	=48-	=48-	=48-	=48-	=48-	=48-	=48-
*	*	*	*	*lig	*	*	*
2.A/	ma-	1e	.	1c	-o-	.	.
.	.	.	.	.	.	4cc\	.
.	.	.	.	.	.	1cc	.
4A/	-le-	.	.	.	.	.	.
*	*	*	*	*col	*	*	*
2F/	-di-	2A/	-ue(n)s	2.d/	.	.	.
*xywh-#176:1091,3387,3465,746	*	*	*	*	*	*	*
!LO:SIC:v:t=custos G	!	!	!	!	!	!	!
!LO:LB:g=original	!	!	!	!	!	!	!
2G/	-cti-	2.d\	ma-	.	.	2b/	.
*	*	*	*	*Xlig	*	*	*
.	.	.	.	4e/	.	.	.
*	*	*	*	*Xcol	*	*	*
=49-	=49-	=49-	=49-	=49-	=49-	=49-	=49-
*lig	*	*	*	*	*	*lig	*
1A	-o-	.	.	4f\	.	1a	.
*	*	*	*	*xywh-#480:982,3315,3487,775	*	*	*
!	!	!	!	!LO:SIC:v:t=custos e	!	!	!
!	!	!	!	!LO:LB:g=original	!	!	!
.	.	4cny/	-le-	8e/	.	.	.
.	.	.	.	8d/	.	.	.
.	.	1c	-di-	4e/	.	.	.
.	.	.	.	4f\	.	.	.
1G	.	.	.	1g	.	1dd	.
.	.	2B/	-cti-	.	.	.	.
*Xlig	*	*	*	*	*	*Xlig	*
*	*	*xywh-#328:1100,3327,3419,783	*	*	*	*	*
!	!	!LO:SIC:v:t=custos c	!	!	!	!	!
!	!	!LO:LB:g=original	!	!	!	!	!
=50-	=50-	=50-	=50-	=50-	=50-	=50-	=50-
1C	-nem	1c	-o-	1g	-nem	2.ee\	-nem
.	.	.	.	.	.	8dd\	.
.	.	.	.	.	.	8cc\	.
2r	.	1G	-nem	2r	.	1b	.
2.G/	de-	.	.	2.g\	de-	.	.
=51-	=51-	=51-	=51-	=51-	=51-	=51-	=51-
.	.	2r	.	.	.	2r	.
4A/	.	.	.	8f\	.	.	.
.	.	.	.	8e\	.	.	.
4B\	.	2.d\	de-	4d/	.	2.dd\	de-
4c\	.	.	.	4e/	.	.	.
1d	.	.	.	1f	.	.	.
.	.	4e\	.	.	.	8cc\	.
.	.	.	.	.	.	8b\	.
.	.	4f\	.	.	.	4a/	.
.	.	4g\	.	.	.	4b/	.
=52-	=52-	=52-	=52-	=52-	=52-	=52-	=52-
1A	-dit	1a	.	1e	-dit	1cc	.
2.A/	be-	2e\	-dit	2a\	be-	2cc\	-dit
.	.	1e\	be-	2a\	-ne-	1cc\	be-
4B\	.	.	.	.	.	.	.
=53-	=53-	=53-	=53-	=53-	=53-	=53-	=53-
2c\	.	.	.	2.g\	-di-	.	.
2G/	-ne-	2d\	-ne-	.	.	2b-X/	-ne-
.	.	.	.	4f\	.	.	.
*	*	*	*	*	*	*xywh-#632:979,3330,3555,729	*
!	!	!	!	!	!	!LO:SIC:v:t=custos a	!
!	!	!	!	!	!	!LO:LB:g=original	!
2A/	-dic-	2c/	-di-	2e/	.	2a/	-dic-
2B-X\	-ti-	2d\	-cti-	1d/	-cti-	2g/	-ti-
=54-	=54-	=54-	=54-	=54-	=54-	=54-	=54-
1A	-o-	1e	-o-	.	.	1a	-o-
.	.	.	.	4c#X/	.	.	.
.	.	.	.	4B/	.	.	.
2A/	-nem	2e\	-nem	2c#X/	.	1a	-nem
2.D/	et	2.f\	et	2d/	-o-	.	.
=55-	=55-	=55-	=55-	=55-	=55-	=55-	=55-
.	.	.	.	1A	-nem	2r	.
4E/	con-	4g\	con-	.	.	.	.
2F#X/	-fun-	2a\	-fun-	.	.	2.dd\	et
*xywh-#176:1130,3977,3410,754	*	*	*	*	*	*	*
!LO:SIC:v:t=custos G	!	!	!	!	!	!	!
!LO:LB:g=original	!	!	!	!	!	!	!
1G	-dens	1d	-de(n)s	2r	.	.	.
.	.	.	.	.	.	4cc\	con-
.	.	.	.	2.d/	et	2bny/	-fun-
=56-	=56-	=56-	=56-	=56-	=56-	=56-	=56-
1r	.	2r	.	.	.	1a	-dens
.	.	.	.	4e/	con-	.	.
.	.	2.d\	et	2f#X\	-fun-	.	.
2.G/	et	.	.	0g	-dens	2r	.
.	.	4c/	co(n)-	.	.	.	.
.	.	2B/	-dun-	.	.	2.gg\	et
4A/	con-	.	.	.	.	.	.
=57-	=57-	=57-	=57-	=57-	=57-	=57-	=57-
2Bny\	-fun-	2d\	-de(n)s	.	.	.	.
.	.	.	.	.	.	4ff\	con-
*	*	*	*ij	*	*	*	*
2c\	-dens	2.g\	et	.	.	2ee\	-fun-
*	*	*	*	*xywh-#480:1053,3887,3385,736	*	*	*
!	!	!	!	!LO:SIC:v:t=custos g	!	!	!
!	!	!	!	!LO:LB:g=original	!	!	!
1G	mor-	.	.	2r	.	2dd\	-de(n)s
.	.	4f\	con-	.	.	.	.
*	*	*	*	*	*ij	*	*
.	.	2e\	-fun-	2.g\	be-	2cc\	mor-
=58-	=58-	=58-	=58-	=58-	=58-	=58-	=58-
1G	-tem	2d\	-dens	.	.	0b	-te(m)
.	.	.	.	4fny\	-ne-	.	.
*	*	*xywh-#328:1077,3896,3442,737	*	*	*	*	*
!	!	!LO:SIC:v:t=custos g	!	!	!	!	!
!	!	!LO:LB:g=original	!	!	!	!	!
.	.	2.g\	et	2e/	-di-	.	.
2.G/	et	.	.	2d/	-cti-	.	.
.	.	4f\	con-	.	.	.	.
.	.	2e\	-fun-	2.g\	-o-	.	.
4A/	con-	.	.	.	.	.	.
=59-	=59-	=59-	=59-	=59-	=59-	=59-	=59-
2B\	-fun-	2d\	-dens	.	.	2r	.
*	*	*	*Xij	*	*	*	*
.	.	.	.	4f\	-nem	.	.
*	*	*	*	*	*	*	*ij
2c\	-dens	2c/	mor-	2e/	et	2.gg\	et
2.G/	et	2B/	-te(m)	2.d/	con-	.	.
.	.	.	.	.	.	4ff\	con-
.	.	2.g\	et	.	.	2ee\	-fun-
4A/	con-	.	.	4cny/	-fun-	.	.
=60-	=60-	=60-	=60-	=60-	=60-	=60-	=60-
2B\	-fun-	.	.	2d/	dens	2dd\	-dens
*	*	*	*	*	*Xij	*	*
.	.	4f\	co(n)-	.	.	.	.
2c\	-dens	2e\	-fun-	2g\	mor-	2.cc\	mor-
*lig	*	*	*	*	*	*	*
1Fny	mor-	1f	-de(n)s	1a	-te(m)	.	.
.	.	.	.	.	.	4a/	.
.	.	.	.	.	.	2.dd\	.
=61-	=61-	=61-	=61-	=61-	=61-	=61-	=61-
*col	*	*	*	*	*	*	*
2.E/	.	2.g\	mor-	2r	.	.	.
.	.	.	.	.	.	4cc\	.
*	*	*	*	*	*	*xywh-#632:1087,3913,3439,722	*
!	!	!	!	!	!	!LO:SIC:v:t=custos cc	!
!	!	!	!	!	!	!LO:LB:g=original	!
.	.	.	.	2g\	do-	2.cc\	.
*Xlig	*	*	*	*	*	*	*
4F/	.	8f\	.	.	.	.	.
.	.	8e\	.	.	.	.	.
*Xcol	*	*lig	*	*	*	*	*
1G	.	1d	.	2g\	-na-	.	.
.	.	.	.	.	.	4b/	.
.	.	.	.	2g\	-uit	4b/	.
.	.	.	.	.	.	8a/	.
.	.	.	.	.	.	8b/	.
=62-	=62-	=62-	=62-	=62-	=62-	=62-	=62-
*	*	*col	*	*	*	*	*
1A	-tem	2.c\	.	2e/	no-	1cc	.
.	.	.	.	2c/	-bis	.	.
*	*	*Xlig	*	*	*	*	*
.	.	8B/	.	.	.	.	.
.	.	8A/	.	.	.	.	.
*	*	*Xcol	*	*	*	*	*
2r	.	2.G/	.	1g	vi-	2.b/	.
2G/	do-	.	.	.	.	.	.
.	.	4A/	.	.	.	4cc\	.
*xywh-#176:1138,4527,3395,817	*	*	*	*	*	*	*
!LO:SIC:v:t=custos G	!	!	!	!	!	!	!
!LO:LB:g=original	!	!	!	!	!	!	!
=63-	=63-	=63-	=63-	=63-	=63-	=63-	=63-
2G/	-na-	4B/	.	1d	-tam	4dd\	.
.	.	4c/	.	.	.	4cc\	.
2G/	-uit	2.d\	.	.	.	4b/	.
.	.	.	.	.	.	4a/	.
2E/	no-	.	.	2e/	ſem-	1g	-tem
*	*	*	*	*	*	*	*Xij
.	.	4c/	.	.	.	.	.
2C/	-bis	2.c/	.	2e/	-pi-	.	.
=64-	=64-	=64-	=64-	=64-	=64-	=64-	=64-
1G	vi-	.	.	2d/	-ter-	2r	.
.	.	4B/	.	.	.	.	.
.	.	4B/	.	2.g\	.	2dd\	do-
.	.	8A/	.	.	.	.	.
.	.	8G/	.	.	.	.	.
1D	-tam	1A	.	.	.	2dd\	-na-
.	.	.	.	8f#X\	.	.	.
.	.	.	.	8e\	.	.	.
.	.	.	.	2f#X\	.	2dd\	-uit
=65-	=65-	=65-	=65-	=65-	=65-	=65-	=65-
2E/	ſem-	1G	-tem	1.g	-nam	2b/	no-
2E/	-pi-	.	.	.	.	2g/	-bis
*	*	*xywh-#328:1062,4457,3442,714	*	*	*	*	*
!	!	!LO:SIC:v:t=custos d	!	!	!	!	!
!	!	!LO:LB:g=original	!	!	!	!	!
0D	-ter-	2r	.	.	.	1dd	vi-
.	.	2d\	do-	4fny\	.	.	.
.	.	.	.	4e\	.	.	.
*	*	*	*	*xywh-#480:1013,4428,3432,783	*	*	*
!	!	!	!	!LO:SIC:v:t=custos f	!	!	!
!	!	!	!	!LO:LB:g=original	!	!	!
=66-	=66-	=66-	=66-	=66-	=66-	=66-	=66-
.	.	2d\	-na-	2.f\	.	1a	-tam
.	.	2d\	-uit	.	.	.	.
.	.	.	.	4e/	.	.	.
1G	-nam	2B/	no-	1d	.	2b/	ſem-
.	.	2G/	-bis	.	.	2b/	-pi-
=67-	=67-	=67-	=67-	=67-	=67-	=67-	=67-
00r	.	1d	vi-	2r	.	2.a/	-ter-
*	*	*	*	*	*ij	*	*
.	.	.	.	2a\	do-	.	.
.	.	.	.	.	.	4b/	.
.	.	1A	-tam	2a\	-na-	4cc\	.
.	.	.	.	.	.	4dd\	.
*	*	*	*	*	*	*xywh-#632:1025,4440,3454,807	*
!	!	!	!	!	!	!LO:SIC:v:t=custos ee	!
!	!	!	!	!	!	!LO:LB:g=original	!
.	.	.	.	2a\	-vit	2.ee\	.
=68-	=68-	=68-	=68-	=68-	=68-	=68-	=68-
.	.	2B/	ſem-	2g\	no-	.	.
.	.	.	.	.	.	4dd\	.
.	.	2B/	-pi-	2d/	-bis	4dd\	.
.	.	.	.	.	.	8cc\	.
.	.	.	.	.	.	8b\	.
.	.	1A	-ter-	2e/	vi-	1.cc	.
.	.	.	.	2f\	-tam	.	.
=69-	=69-	=69-	=69-	=69-	=69-	=69-	=69-
2r	.	1G	-nam	2.g\	sem-	.	.
*	*ij	*	*	*	*	*	*
2G/	do-	.	.	.	.	4b/	.
.	.	.	.	8f\	-pi-	4a/	.
.	.	.	.	8e\	.	.	.
2G/	-na-	1r	.	2d/	.	4b/	.
.	.	.	.	.	.	4cc\	.
2G/	-vit	.	.	2d/	.	2.dd\	.
=70-	=70-	=70-	=70-	=70-	=70-	=70-	=70-
2E/	no-	1r	.	1e	-ter-	.	.
.	.	.	.	.	.	4cc\	.
2C/	-bis	.	.	.	.	2.cc\	.
1G	vi-	2r	.	2d/	-nam	.	.
*	*	*	*	*	*Xij	*	*
.	.	.	.	.	.	4b/	.
*	*	*	*ij	*	*	*	*
.	.	2d\	do-	1g\	vi-	4b/	.
.	.	.	.	.	.	8a/	.
.	.	.	.	.	.	8g/	.
=71-	=71-	=71-	=71-	=71-	=71-	=71-	=71-
1D	-tam	2d\	-na-	.	.	1a	.
.	.	2d\	-vit	2f\	-tam	.	.
2E/	sem-	2B/	no-	1e	ſem-	2g/	-na(m)
2E/	-pi-	2G/	-bis	.	.	2g/	ſem-
=72-	=72-	=72-	=72-	=72-	=72-	=72-	=72-
00D	-ter-	1d	vi-	1A	-pi-	2f/	-pi-
.	.	.	.	.	.	4d/	-ter-
.	.	.	.	.	.	4e/	.
.	.	1A	-tam	0.d	-ter-	4f/	.
.	.	.	.	.	.	4g/	.
.	.	.	.	.	.	2.a/	.
=73-	=73-	=73-	=73-	=73-	=73-	=73-	=73-
.	.	2B/	sem-	.	.	.	.
.	.	.	.	.	.	4g/	.
.	.	2B/	-pi-	.	.	1g	.
.	.	1A	-ter-	.	.	.	.
.	.	.	.	.	.	2f#X/	.
=74-	=74-	=74-	=74-	=74-	=74-	=74-	=74-
00G	-nam	00G	-nam	00d	-nam.	00g	-nam.
*	*Xij	*	*Xij	*	*	*	*
=75-	=75-	=75-	=75-	=75-	=75-	=75-	=75-
.	.	.	.	.	.	.	.
=||	=||	=||	=||	=||	=||	=||	=||
*-	*-	*-	*-	*-	*-	*-	*-
!!!system-decoration: s1,s2,s3,s4
!!!ENC: Andrzej Gręziak
!!!END: 2022-07-10
!!!ENC: Urszula Świątek
!!!END: 2022-07-28
!!!YEC: Copyright 2022 Narodowy Instytut Fryderyka Chopina (https://polishscores.org)
!!!YEM: License CC-BY-4.0 (https://creativecommons.org/licenses/by/4.0)
!!!IIIF: https://repozytorium.nifc.pl/islandora/object/pl-gd%3A57883/datastream/IIIF/view
!!!ENC-iiif: Lidia Bialucha
!!!END-iiif: 2022-09-12
